build/img/icon-frankiestein.svg

<svg width="25" height="24" viewBox="0 0 25 24" fill="none" xmlns="http://www.w3.org/2000/svg">
<g clip-path="url(#clip0)">
<path d="M23.7427 5.67188C23.3544 5.67188 23.0396 5.98669 23.0396 6.375V7.07812H21.5864V3.51562C21.5864 1.57711 20.0093 0 18.0708 0H6.8208C4.88229 0 3.30518 1.57711 3.30518 3.51562V7.07812H1.85205V6.375C1.85205 5.98669 1.53724 5.67188 1.14893 5.67188C0.760613 5.67188 0.445801 5.98669 0.445801 6.375C0.445801 6.62217 0.445801 11.7533 0.445801 12C0.445801 12.3883 0.760613 12.7031 1.14893 12.7031C1.53724 12.7031 1.85205 12.3883 1.85205 12V11.2969H3.30518C3.30518 11.6233 3.30518 14.4933 3.30518 14.8125C3.30518 19.8785 7.40566 24 12.4458 24C17.4859 24 21.5864 19.8785 21.5864 14.8125V11.2969H23.0396V12C23.0396 12.3883 23.3544 12.7031 23.7427 12.7031C24.131 12.7031 24.4458 12.3883 24.4458 12C24.4458 11.7528 24.4458 6.6217 24.4458 6.375C24.4458 5.98669 24.131 5.67188 23.7427 5.67188ZM3.30518 9.89062H1.85205C1.85205 9.38175 1.85205 8.99325 1.85205 8.48438H3.30518V9.89062ZM20.1802 14.8125C20.1802 19.1031 16.7105 22.5938 12.4458 22.5938C8.18107 22.5938 4.71143 19.1031 4.71143 14.8125C4.71143 14.7507 4.71143 7.26066 4.71143 6.95714C4.9315 7.03519 5.16808 7.07808 5.41455 7.07808C5.95441 7.07808 6.4473 6.87398 6.8208 6.53925C7.1943 6.87403 7.68719 7.07808 8.22705 7.07808C8.76691 7.07808 9.2598 6.87398 9.6333 6.53925C10.0068 6.87403 10.4997 7.07808 11.0396 7.07808C11.5794 7.07808 12.0723 6.87398 12.4458 6.53925C12.8193 6.87403 13.3122 7.07808 13.8521 7.07808C14.3919 7.07808 14.8848 6.87398 15.2583 6.53925C15.6318 6.87403 16.1247 7.07808 16.6646 7.07808C17.2044 7.07808 17.6973 6.87398 18.0708 6.53925C18.4443 6.87403 18.9372 7.07808 19.4771 7.07808C19.7235 7.07808 19.9601 7.03519 20.1802 6.95714V14.8125ZM20.1802 4.96875C20.1802 5.35645 19.8648 5.67188 19.4771 5.67188C19.0893 5.67188 18.7739 5.35645 18.7739 4.96875C18.7739 4.58044 18.4591 4.26562 18.0708 4.26562C17.6825 4.26562 17.3677 4.58044 17.3677 4.96875C17.3677 5.35645 17.0523 5.67188 16.6646 5.67188C16.2768 5.67188 15.9614 5.35645 15.9614 4.96875C15.9614 4.58044 15.6466 4.26562 15.2583 4.26562C14.87 4.26562 14.5552 4.58044 14.5552 4.96875C14.5552 5.35645 14.2398 5.67188 13.8521 5.67188C13.4643 5.67188 13.1489 5.35645 13.1489 4.96875C13.1489 4.58044 12.8341 4.26562 12.4458 4.26562C12.0575 4.26562 11.7427 4.58044 11.7427 4.96875C11.7427 5.35645 11.4273 5.67188 11.0396 5.67188C10.6518 5.67188 10.3364 5.35645 10.3364 4.96875C10.3364 4.58044 10.0216 4.26562 9.6333 4.26562C9.24499 4.26562 8.93018 4.58044 8.93018 4.96875C8.93018 5.35645 8.61475 5.67188 8.22705 5.67188C7.83935 5.67188 7.52393 5.35645 7.52393 4.96875C7.52393 4.58044 7.20911 4.26562 6.8208 4.26562C6.43249 4.26562 6.11768 4.58044 6.11768 4.96875C6.11768 5.35645 5.80225 5.67188 5.41455 5.67188C5.02685 5.67188 4.71143 5.35645 4.71143 4.96875V3.51562C4.71143 2.35252 5.65769 1.40625 6.8208 1.40625H18.0708C19.2339 1.40625 20.1802 2.35252 20.1802 3.51562V4.96875ZM23.0396 9.89062H21.5864V8.48438H23.0396C23.0396 8.99325 23.0396 9.38175 23.0396 9.89062Z" fill="white"/>
<path d="M18.7739 9.18755C18.7739 8.79923 18.4591 8.48442 18.0708 8.48442C17.6825 8.48442 17.3677 8.79923 17.3677 9.18755C17.3677 9.57525 17.0523 9.89067 16.6646 9.89067H14.4345C14.2467 9.89067 14.0702 9.81755 13.9374 9.6847C13.1149 8.86228 11.7767 8.86228 10.9542 9.6847C10.8214 9.8175 10.6449 9.89062 10.4571 9.89062H8.22705C7.83935 9.89062 7.52393 9.5752 7.52393 9.1875C7.52393 8.79919 7.20911 8.48437 6.8208 8.48437C6.43249 8.48437 6.11768 8.79919 6.11768 9.1875C6.11768 9.53864 6.20439 9.86977 6.35683 10.1613C6.19971 10.5169 6.11768 10.9021 6.11768 11.2969C6.11768 12.8477 7.37936 14.1094 8.93018 14.1094C10.481 14.1094 11.7427 12.8477 11.7427 11.2969C11.7427 11.1575 11.7322 11.0196 11.7122 10.8834C11.7951 10.8217 11.8742 10.7535 11.9486 10.6791C12.2228 10.405 12.6688 10.405 12.943 10.6791C13.0174 10.7535 13.0965 10.8217 13.1794 10.8834C13.1594 11.0196 13.1489 11.1575 13.1489 11.2969C13.1489 12.8477 14.4106 14.1094 15.9614 14.1094C17.5122 14.1094 18.7739 12.8477 18.7739 11.2969C18.7739 10.9021 18.6919 10.5169 18.5348 10.1613C18.6872 9.86981 18.7739 9.53869 18.7739 9.18755ZM8.93018 12.7032C8.15477 12.7032 7.52393 12.0723 7.52393 11.2969C7.52393 11.2569 7.52604 11.2173 7.52936 11.1778C7.74789 11.2546 7.9826 11.2922 8.22705 11.2922H10.3364C10.3364 12.0676 9.70558 12.7032 8.93018 12.7032ZM15.9614 12.7032C15.186 12.7032 14.5552 12.0723 14.5552 11.2969H16.6646C16.909 11.2969 17.1437 11.2546 17.3622 11.1778C17.3656 11.2173 17.3677 11.2569 17.3677 11.2969C17.3677 12.0723 16.7368 12.7032 15.9614 12.7032Z" fill="white"/>
<path d="M13.8521 14.1094C13.4637 14.1094 13.1489 14.4242 13.1489 14.8125V15.5156H11.7427V14.8125C11.7427 14.4242 11.4279 14.1094 11.0396 14.1094C10.6512 14.1094 10.3364 14.4242 10.3364 14.8125V16.2188C10.3364 16.6071 10.6512 16.9219 11.0396 16.9219H13.8521C14.2404 16.9219 14.5552 16.6071 14.5552 16.2188V14.8125C14.5552 14.4242 14.2404 14.1094 13.8521 14.1094Z" fill="white"/>
<path d="M15.2583 18.375H9.6333C9.24499 18.375 8.93018 18.6898 8.93018 19.0781C8.93018 19.4664 9.24499 19.7812 9.6333 19.7812H15.2583C15.6466 19.7812 15.9614 19.4664 15.9614 19.0781C15.9614 18.6898 15.6466 18.375 15.2583 18.375Z" fill="white"/>
</g>
<defs>
<clipPath id="clip0">
<rect x="0.445801" width="24" height="24" fill="white"/>
</clipPath>
</defs>
</svg>

<svg width="25" height="24" fill="none" xmlns="http://www.w3.org/2000/svg"><g clip-path="url(#clip0)" fill="#fff"><path d="M23.743 5.672a.703.703 0 00-.703.703v.703h-1.454V3.516A3.52 3.52 0 0018.071 0H6.82a3.52 3.52 0 00-3.516 3.516v3.562H1.852v-.703a.703.703 0 00-1.406 0V12a.703.703 0 001.406 0v-.703h1.453v3.515c0 5.066 4.1 9.188 9.14 9.188 5.04 0 9.141-4.122 9.141-9.188v-3.515h1.454V12a.703.703 0 001.406 0V6.375a.703.703 0 00-.703-.703zM3.305 9.89H1.852V8.484h1.453v1.407zm16.875 4.921c0 4.291-3.47 7.782-7.734 7.782-4.265 0-7.735-3.49-7.735-7.782V6.957a2.1 2.1 0 002.11-.418 2.1 2.1 0 002.812 0 2.1 2.1 0 002.813 0 2.1 2.1 0 002.812 0 2.1 2.1 0 002.813 0 2.1 2.1 0 002.11.418v7.856zm0-9.843a.704.704 0 01-1.406 0 .703.703 0 00-1.406 0 .704.704 0 01-1.407 0 .703.703 0 00-1.406 0 .704.704 0 01-1.406 0 .703.703 0 00-1.406 0 .704.704 0 01-1.407 0 .703.703 0 00-1.406 0 .704.704 0 01-1.406 0 .703.703 0 00-1.406 0 .704.704 0 01-1.407 0V3.516c0-1.163.947-2.11 2.11-2.11h11.25c1.163 0 2.11.947 2.11 2.11v1.453zm2.86 4.922h-1.454V8.484h1.454v1.407z"/><path d="M18.774 9.188a.703.703 0 10-1.406 0 .704.704 0 01-.703.703h-2.23a.698.698 0 01-.498-.206 2.112 2.112 0 00-2.983 0 .698.698 0 01-.497.206h-2.23a.704.704 0 01-.703-.704.703.703 0 00-1.406 0c0 .352.086.683.239.974A2.816 2.816 0 008.93 14.11a2.816 2.816 0 002.782-3.226c.083-.061.162-.13.237-.204a.704.704 0 01.994 0c.074.075.154.143.236.204a2.816 2.816 0 002.782 3.226 2.816 2.816 0 002.574-3.948c.152-.291.239-.622.239-.973zM8.93 12.703a1.408 1.408 0 01-1.4-1.525c.218.077.453.114.697.114h2.11c0 .776-.631 1.411-1.407 1.411zm7.031 0c-.775 0-1.406-.63-1.406-1.406h2.11a2.1 2.1 0 00.697-.12 1.408 1.408 0 01-1.4 1.525z"/><path d="M13.852 14.11a.703.703 0 00-.703.703v.703h-1.406v-.704a.703.703 0 00-1.407 0v1.407c0 .388.315.703.704.703h2.812a.703.703 0 00.703-.703v-1.407a.703.703 0 00-.703-.703zm1.406 4.265H9.633a.703.703 0 000 1.406h5.625a.703.703 0 000-1.406z"/></g><defs><clipPath id="clip0"><path fill="#fff" d="M.446 0h24v24h-24z"/></clipPath></defs></svg>
